src/imagens/sectionProjetos/tJS.svg

<svg width="30" height="17" viewBox="0 0 30 17" fill="none" xmlns="http://www.w3.org/2000/svg">
<path d="M2.26667 16.7855C1.6 16.7855 1.05556 16.566 0.633333 16.1268C0.211111 15.6877 0 15.1215 0 14.4282V9.85217H3.2V13.4575H8.8V0.145508H12V14.4282C12 15.1215 11.7889 15.6877 11.3667 16.1268C10.9444 16.566 10.4 16.7855 9.73333 16.7855H2.26667ZM18.2667 16.7855C17.6 16.7855 17.0556 16.566 16.6333 16.1268C16.2111 15.6877 16 15.1215 16 14.4282V11.2388H19.2V13.4575H26.1333V9.78284H18.2667C17.6444 9.78284 17.1111 9.55173 16.6667 9.08951C16.2222 8.62729 16 8.07262 16 7.42551V2.50284C16 1.80951 16.2111 1.24329 16.6333 0.804174C17.0556 0.365063 17.6 0.145508 18.2667 0.145508H27.0667C27.7333 0.145508 28.2778 0.365063 28.7 0.804174C29.1222 1.24329 29.3333 1.80951 29.3333 2.50284V5.69217H26.1333V3.47351H19.2V7.14817H27.0667C27.6889 7.14817 28.2222 7.37929 28.6667 7.84151C29.1111 8.30373 29.3333 8.8584 29.3333 9.50551V14.4282C29.3333 15.1215 29.1222 15.6877 28.7 16.1268C28.2778 16.566 27.7333 16.7855 27.0667 16.7855H18.2667Z" fill="#808080"/>
</svg>

<svg xmlns="http://www.w3.org/2000/svg" width="30" height="17" fill="none"><path fill="gray" d="M2.267 16.785c-.667 0-1.211-.219-1.634-.658C.211 15.687 0 15.122 0 14.428V9.852h3.2v3.605h5.6V.146H12v14.282c0 .693-.211 1.26-.633 1.699-.423.439-.967.659-1.634.659H2.267Zm16 0c-.667 0-1.211-.219-1.634-.658-.422-.44-.633-1.005-.633-1.699v-3.19h3.2v2.22h6.933V9.782h-7.866c-.623 0-1.156-.231-1.6-.693A2.315 2.315 0 0 1 16 7.426V2.503c0-.693.211-1.26.633-1.699.423-.439.967-.658 1.634-.658h8.8c.666 0 1.21.22 1.633.658.422.44.633 1.006.633 1.699v3.19h-3.2v-2.22H19.2v3.675h7.867c.622 0 1.155.231 1.6.694.444.462.666 1.016.666 1.664v4.922c0 .693-.21 1.26-.633 1.699-.422.439-.967.659-1.633.659h-8.8Z"/></svg>
